public/assets/img/casestudies/wellmee/logoWellmee.svg

<svg fill="none" height="81" viewBox="0 0 392 81" width="392" xmlns="http://www.w3.org/2000/svg"><path clip-rule="evenodd" d="m173.559 77.6902v-.42c0-1.113.764-1.9049 1.631-2.803 1.136-1.1768 2.448-2.5361 2.448-5.0396v-51.4269c0-2.7961-1.44-4.3-2.609-5.5204-.799-.8334-1.47-1.5347-1.47-2.425v-.40289c0-1.04568.857-1.56852 2.091-2.09136l13.182-6.48835c2.717-1.354245 4.286.11142 4.286 1.88565v66.51215c0 2.4826 1.434 3.8286 2.684 5.0005.963.9037 1.816 1.7039 1.816 2.8421v.4199c0 1.0457-1.046 1.7828-2.409 1.7828h-19.242c-1.466-.0428-2.408-.7799-2.408-1.8256zm-28.235-.42v.42c0 1.0457.943 1.7828 2.409 1.8256h19.242c1.354 0 2.4-.7371 2.4-1.7828v-.4199c0-1.1382-.852-1.9384-1.813-2.842-1.247-1.172-2.679-2.518-2.679-5.0006v-66.51215c0-1.77423-1.568-3.239895-4.285-1.88565l-13.182 6.48835c-1.235.52284-2.092 1.04568-2.092 2.09136v.40289c0 .8903.672 1.5916 1.47 2.425 1.169 1.2204 2.61 2.7243 2.61 5.5204v51.4269c0 2.5034-1.312 3.8628-2.448 5.0396-.867.8981-1.632 1.69-1.632 2.803zm-38.573-70.37422v.41999c0 1.17067-.867 1.85988-1.983 2.74703-1.335 1.0615-3.027 2.4064-4.017 5.1984l-19.9705 59.8181c-.3692 1.3088-1.169 2.4549-2.2702 3.2528-1.1013.7979-2.4394 1.201-3.7981 1.1442-1.2799.0763-2.5475-.2865-3.5933-1.0283-1.0457-.7419-1.807-1.8184-2.1579-3.0516l-13.0709-39.2216-13.2852 38.9045c-.9428 3.0342-3.0341 4.397-5.434 4.397-3.1456 0-4.4999-1.3628-5.7598-4.0799l-24.57328-59.998c-1.14864-2.6922-2.84221-4.0267-4.1954-5.093-1.23175-.9706-2.181482-1.71898-2.181482-3.06678v-.30855c0-1.04568.942822-1.67138 2.297052-1.67138h22.07051c1.4657 0 2.3999.72856 2.3999 1.67138v.41998c0 1.08809-.8715 1.85452-1.8091 2.67915-1.4037 1.2345-2.9556 2.5994-1.9536 5.3692l16.525 44.6557 11.9996-35.5532-2.9656-9.2397c-.771-2.3128-2.4952-3.6984-3.9566-4.8727-1.3169-1.0583-2.4203-1.94502-2.4203-3.18416v-.30856c0-1.04568.8571-1.67137 2.1942-1.67137h21.9676c1.3543 0 2.1942.62569 2.1942 1.67137v.30856c0 1.02859-.9076 1.70156-1.9193 2.45173-1.5596 1.15643-3.3666 2.49633-2.4776 5.60513l13.4908 44.45 14.1252-44.45c.8655-2.5967-.7141-3.9498-2.1528-5.1822-.9974-.85439-1.9271-1.65075-1.9271-2.76323v-.31714c0-1.14853.9429-1.77422 2.2971-1.77422h14.0139c1.457 0 2.297.72854 2.297 1.67137zm35.86 57.82582c-.625 6.0683-7.714 15.7966-21.23 15.7966-14.571 0-25.3107-10.4568-25.3107-26.5706 0-15.1709 11.6137-25.7134 25.3107-25.7134 13.696 0 19.765 7.9454 19.765 14.8538 0 3.5484-1.775 5.6484-4.595 6.8998l-23.244 10.551c2.717 5.7513 7.525 9.1026 13.799 9.1026 5.546 0 9.943-2.8285 11.923-6.0684 1.285-1.5685 3.685-1.0456 3.582 1.1486zm-31.996-17.9994c-.047 3.0299.305 6.0529 1.046 8.9911l13.491-6.7969c1.877-.9429 2.717-2.7171 2.717-4.9199 0-3.7627-2.717-11.1853-8.365-11.1853-5.649 0-8.889 5.9826-8.889 13.9281zm182.278 31.0622v-.42c0-1.13-.665-1.9289-1.44-2.8586-.987-1.186-2.152-2.5849-2.34-5.1554l-1.251-18.6166c-1.26-17.048-9.934-22.4821-19.456-22.4821-7.003 0-13.071 3.4284-15.891 9.4283-3.557-6.1884-9.943-9.4283-17.365-9.4283-2.843-.0518-5.654.6099-8.175 1.9245-2.522 1.3147-4.674 3.2403-6.259 5.601v-4.9113c0-1.9885-1.251-3.4542-3.66-2.1942l-13.174 6.0598c-1.259.6342-2.202 1.1571-2.202 2.2028v.4114c0 1.0998.941 1.828 2.017 2.6615 1.441 1.1151 3.125 2.4185 3.125 5.0525v24.3507c0 2.5712-1.45 3.9445-2.702 5.1305-.951.9014-1.789 1.6946-1.789 2.8235v.48c0 1.1485 1.046 1.7742 2.4 1.7742h19.456c1.466 0 2.4-.6257 2.4-1.7742v-.42c0-1.1307-.84-1.9295-1.794-2.8361-1.251-1.1894-2.697-2.5644-2.697-5.1179v-23.6307c0-6.5912 3.24-11.6139 8.991-11.6139 5.34 0 9.103 5.1255 9.103 14.8538v20.3308c0 2.5712-1.215 3.9445-2.264 5.1305-.798.9014-1.499 1.6946-1.499 2.8235v.4371c0 1.1485 1.045 1.7742 2.4 1.7742h18.119c1.363 0 2.297-.6257 2.297-1.7742v-.42c0-1.1307-.685-1.9295-1.462-2.8361-1.019-1.1894-2.198-2.5644-2.198-5.1179v-19.3451c.025-1.6836-.113-3.3656-.411-5.0227.205-6.2741 3.548-10.8768 8.468-10.8768 5.545 0 8.571 4.2942 9.094 16.1138l1.02 19.1137c.183 2.6125-1.065 3.9882-2.153 5.1873-.796.8782-1.507 1.6616-1.507 2.7667v.42c0 1.1485.943 1.7742 2.408 1.7742h18.094c1.363 0 2.297-.6257 2.297-1.7742zm47.781-13.0628c-.626 6.0683-7.714 15.7966-21.231 15.7966-14.571 0-25.31-10.4568-25.31-26.5706 0-15.1709 11.605-25.7134 25.31-25.7134s19.765 7.9454 19.765 14.8538c0 3.5484-1.774 5.6484-4.603 6.8998l-23.219 10.5596c2.726 5.7513 7.534 9.1026 13.808 9.1026 5.546 0 9.934-2.8285 11.923-6.0684 1.251-1.5771 3.66-1.0542 3.557 1.14zm-32.005-17.9994c-.042 3.0297.309 6.0521 1.046 8.9911l13.491-6.7969c1.886-.9429 2.717-2.7171 2.717-4.9199 0-3.7627-2.717-11.1853-8.365-11.1853-5.649 0-8.889 5.9826-8.889 13.9281zm61.094 33.796c13.525 0 20.605-9.7283 21.239-15.7966.077-2.1942-2.331-2.7171-3.583-1.14-1.988 3.2399-6.385 6.0684-11.922 6.0684-6.283 0-11.065-3.3599-13.808-9.1112l23.245-10.551c2.819-1.2514 4.602-3.3514 4.602-6.8998 0-6.9084-6.077-14.8538-19.773-14.8538-13.697 0-25.302 10.5425-25.302 25.7134 0 16.1138 10.731 26.5706 25.302 26.5706zm-9.72-24.8049c-.741-2.9382-1.093-5.9612-1.046-8.9911l-.025.0171c0-7.9455 3.265-13.9281 8.914-13.9281 5.648 0 8.365 7.4226 8.365 11.1853 0 2.2028-.84 3.977-2.717 4.9199z" fill="#383955" fill-rule="evenodd"/></svg>

<svg width="392" height="81" viewBox="0 0 392 81" fill="none" xmlns="http://www.w3.org/2000/svg">
<path fill-rule="evenodd" clip-rule="evenodd" d="M173.559 77.6902V77.2702C173.559 76.1572 174.323 75.3653 175.19 74.4672C176.326 73.2904 177.638 71.9311 177.638 69.4276V18.0007C177.638 15.2046 176.198 13.7007 175.029 12.4803C174.23 11.6469 173.559 10.9456 173.559 10.0553V9.65241C173.559 8.60673 174.416 8.08389 175.65 7.56105L188.832 1.0727C191.549 -0.281545 193.118 1.18412 193.118 2.95835V69.4705C193.118 71.9531 194.552 73.2991 195.802 74.471C196.765 75.3747 197.618 76.1749 197.618 77.3131V77.733C197.618 78.7787 196.572 79.5158 195.209 79.5158H175.967C174.501 79.473 173.559 78.7359 173.559 77.6902ZM145.324 77.2702V77.6902C145.324 78.7359 146.267 79.473 147.733 79.5158H166.975C168.329 79.5158 169.375 78.7787 169.375 77.733V77.3131C169.375 76.1749 168.523 75.3747 167.562 74.4711C166.315 73.2991 164.883 71.9531 164.883 69.4705V2.95835C164.883 1.18412 163.315 -0.281545 160.598 1.0727L147.416 7.56105C146.181 8.08389 145.324 8.60673 145.324 9.65241V10.0553C145.324 10.9456 145.996 11.6469 146.794 12.4803C147.963 13.7007 149.404 15.2046 149.404 18.0007V69.4276C149.404 71.931 148.092 73.2904 146.956 74.4672C146.089 75.3653 145.324 76.1572 145.324 77.2702ZM106.751 6.89598V7.31597C106.751 8.48664 105.884 9.17585 104.768 10.063C103.433 11.1245 101.741 12.4694 100.751 15.2614L80.7805 75.0795C80.4113 76.3883 79.6115 77.5344 78.5103 78.3323C77.409 79.1302 76.0709 79.5333 74.7122 79.4765C73.4323 79.5528 72.1647 79.19 71.1189 78.4482C70.0732 77.7063 69.3119 76.6298 68.961 75.3966L55.8901 36.175L42.6049 75.0795C41.6621 78.1137 39.5708 79.4765 37.1709 79.4765C34.0253 79.4765 32.671 78.1137 31.4111 75.3966L6.83782 15.3986C5.68918 12.7064 3.99561 11.3719 2.64242 10.3056C1.41067 9.335 0.460938 8.58662 0.460938 7.23882V6.93027C0.460938 5.88459 1.40376 5.25889 2.75799 5.25889H24.8285C26.2942 5.25889 27.2284 5.98745 27.2284 6.93027V7.35025C27.2284 8.43834 26.3569 9.20477 25.4193 10.0294C24.0156 11.2639 22.4637 12.6288 23.4657 15.3986L39.9907 60.0543L51.9903 24.5011L49.0247 15.2614C48.2537 12.9486 46.5295 11.563 45.0681 10.3887C43.7512 9.3304 42.6478 8.44368 42.6478 7.20454V6.89598C42.6478 5.8503 43.5049 5.22461 44.842 5.22461H66.8096C68.1639 5.22461 69.0038 5.8503 69.0038 6.89598V7.20454C69.0038 8.23313 68.0962 8.9061 67.0845 9.65627C65.5249 10.8127 63.7179 12.1526 64.6069 15.2614L78.0977 59.7114L92.2229 15.2614C93.0884 12.6647 91.5088 11.3116 90.0701 10.0792C89.0727 9.22481 88.143 8.42845 88.143 7.31597V6.99883C88.143 5.8503 89.0859 5.22461 90.4401 5.22461H104.454C105.911 5.22461 106.751 5.95315 106.751 6.89598ZM142.611 64.7218C141.986 70.7901 134.897 80.5184 121.381 80.5184C106.81 80.5184 96.0703 70.0616 96.0703 53.9478C96.0703 38.7769 107.684 28.2344 121.381 28.2344C135.077 28.2344 141.146 36.1798 141.146 43.0882C141.146 46.6366 139.371 48.7366 136.551 49.988L113.307 60.539C116.024 66.2903 120.832 69.6416 127.106 69.6416C132.652 69.6416 137.049 66.8131 139.029 63.5732C140.314 62.0047 142.714 62.5276 142.611 64.7218ZM110.615 46.7224C110.568 49.7523 110.92 52.7753 111.661 55.7135L125.152 48.9166C127.029 47.9737 127.869 46.1995 127.869 43.9967C127.869 40.234 125.152 32.8114 119.504 32.8114C113.855 32.8114 110.615 38.794 110.615 46.7395V46.7224ZM292.893 77.7846V77.3646C292.893 76.2346 292.228 75.4357 291.453 74.506C290.466 73.32 289.301 71.9211 289.113 69.3506L287.862 50.734C286.602 33.686 277.928 28.2519 268.406 28.2519C261.403 28.2519 255.335 31.6803 252.515 37.6802C248.958 31.4918 242.572 28.2519 235.15 28.2519C232.307 28.2001 229.496 28.8618 226.975 30.1764C224.453 31.4911 222.301 33.4167 220.716 35.7774V30.8661C220.716 28.8776 219.465 27.4119 217.056 28.6719L203.882 34.7317C202.623 35.3659 201.68 35.8888 201.68 36.9345V37.3459C201.68 38.4457 202.621 39.1739 203.697 40.0074C205.138 41.1225 206.822 42.4259 206.822 45.0599V69.4106C206.822 71.9818 205.372 73.3551 204.12 74.5411C203.169 75.4425 202.331 76.2357 202.331 77.3646V77.8446C202.331 78.9931 203.377 79.6188 204.731 79.6188H224.187C225.653 79.6188 226.587 78.9931 226.587 77.8446V77.4246C226.587 76.2939 225.747 75.4951 224.793 74.5885C223.542 73.3991 222.096 72.0241 222.096 69.4706V45.8399C222.096 39.2487 225.336 34.226 231.087 34.226C236.427 34.226 240.19 39.3515 240.19 49.0798V69.4106C240.19 71.9818 238.975 73.3551 237.926 74.5411C237.128 75.4425 236.427 76.2357 236.427 77.3646V77.8017C236.427 78.9502 237.472 79.5759 238.827 79.5759H256.946C258.309 79.5759 259.243 78.9502 259.243 77.8017V77.3817C259.243 76.251 258.558 75.4522 257.781 74.5456C256.762 73.3562 255.583 71.9812 255.583 69.4277V50.0826C255.608 48.399 255.47 46.717 255.172 45.0599C255.377 38.7858 258.72 34.1831 263.64 34.1831C269.185 34.1831 272.211 38.4773 272.734 50.2969L273.754 69.4106C273.937 72.0231 272.689 73.3988 271.601 74.5979C270.805 75.4761 270.094 76.2595 270.094 77.3646V77.7846C270.094 78.9331 271.037 79.5588 272.502 79.5588H290.596C291.959 79.5588 292.893 78.9331 292.893 77.7846ZM340.674 64.7218C340.048 70.7901 332.96 80.5184 319.443 80.5184C304.872 80.5184 294.133 70.0616 294.133 53.9478C294.133 38.7769 305.738 28.2344 319.443 28.2344C333.148 28.2344 339.208 36.1798 339.208 43.0882C339.208 46.6366 337.434 48.7366 334.605 49.988L311.386 60.5476C314.112 66.2989 318.92 69.6502 325.194 69.6502C330.74 69.6502 335.128 66.8217 337.117 63.5818C338.368 62.0047 340.777 62.5276 340.674 64.7218ZM308.669 46.7224C308.627 49.7521 308.978 52.7745 309.715 55.7135L323.206 48.9166C325.092 47.9737 325.923 46.1995 325.923 43.9967C325.923 40.234 323.206 32.8114 317.558 32.8114C311.909 32.8114 308.669 38.794 308.669 46.7395V46.7224ZM369.763 80.5184C383.288 80.5184 390.368 70.7901 391.002 64.7218C391.079 62.5276 388.671 62.0047 387.419 63.5818C385.431 66.8217 381.034 69.6502 375.497 69.6502C369.214 69.6502 364.432 66.2903 361.689 60.539L384.934 49.988C387.753 48.7366 389.536 46.6366 389.536 43.0882C389.536 36.1798 383.459 28.2344 369.763 28.2344C356.066 28.2344 344.461 38.7769 344.461 53.9478C344.461 70.0616 355.192 80.5184 369.763 80.5184ZM360.043 55.7135C359.302 52.7753 358.95 49.7523 358.997 46.7224L358.972 46.7395C358.972 38.794 362.237 32.8114 367.886 32.8114C373.534 32.8114 376.251 40.234 376.251 43.9967C376.251 46.1995 375.411 47.9737 373.534 48.9166L360.043 55.7135Z" fill="#383955"/>
</svg>
